X: 372
M: C
L: 1/8
K: D
V: 1
|:\
|:\
defd gfed | (B/c/d) AF (G/F/E/D/ =C)E |\
defd gfed | B/c/d AF A2 A2 :|
V: 2 clef=bass middle=d
|:\
d2d2 A2A2 | d2d2 =c2c2 |\
d2d2 A2A2 | d2A2 D2D2 :|
|:\
d2d2 d2d2 | d2d2 =c2c2 |\
d2d2 d2d2 | g2a2 d2d2 :|

